X: 48
T: A li lang
%%abc-version 2.0
%%abcx-abcm2ps-target-version 5.9.1 (29 Sep 2008)
%%abc-creator hum2abc beta
%%abcx-conversion-date 2013/10/02 07:44:27
%%abc-edited-by Helmut Schaffrath
%%humdrum-veritas 3385037323
%%humdrum-veritas-data 3074402735
%%continueall 1
%%barnumbers 0
L: 1/8
M: 3/4
K: G
D2>E2 D E [I:setbarnb 1]| 
G2>A2 G A | 
B2A B G E | 
D2>E2 D E | 
G2>A2 G A | 
B A G E D E | 
G3A/ A/G2 | 
G4z2 | 
d4d2 | 
d2B2A A | 
B2A B G E | 
D2>E2 D z | 
G2>A2 G A | 
B A G E D E | 
G2>A2G2 | 
G4z2 |]  



